prod/img/icon-materials.svg

<svg version="1.1" id="Layer_2" xmlns="http://www.w3.org/2000/svg" x="0" y="0" viewBox="0 0 44 65" xml:space="preserve"><style>.st0{fill:#fff}</style><path class="st0" d="M37.9 30.4v10.9S38 44 35.1 44C32 44 32 41.3 32 41.3v-6.4c0-.2-.4-1.9-2.4-1.9-2.6 0-2.6 1.9-2.6 1.9v19.2s0 1.9-2.5 1.9-2.5-2-2.5-2V40s0-2.9-3.8-2.9c-4.1 0-4 3.1-4 3.1v3.7s-.1 2.9-4.7 2.9-4.6-4.5-4.6-4.5V29.9C3.2 29 0 26.7 0 26.7V56s3 9 22 9 22-8.7 22-8.7V26.7c-2.9 2.8-6.1 3.7-6.1 3.7z"/><path class="st0" d="M22 0C1.7 0 0 19.9 0 19.9V23c8.4 6.2 22 6 22 6s13.6.2 22-6.1v-3.1C44 19.9 42.3 0 22 0zm0 25c-11.8 0-14.3-2.4-14.3-2.4C14 19.7 22 19.8 22 19.8s8.1-.1 14.3 2.8c0 0-2.5 2.4-14.3 2.4zm0-12.4c-9.6 0-17.7 2.9-17.7 2.9C8.9 2.6 22 3.1 22 3.1s13.1-.4 17.7 12.5c0 0-8.1-3-17.7-3z"/></svg>

<?xml version="1.0" encoding="utf-8"?>
<!-- Generator: Adobe Illustrator 19.2.0, SVG Export Plug-In . SVG Version: 6.00 Build 0)  -->
<svg version="1.1" id="Layer_2" xmlns="http://www.w3.org/2000/svg" xmlns:xlink="http://www.w3.org/1999/xlink" x="0px" y="0px"
	 viewBox="0 0 44 65" style="enable-background:new 0 0 44 65;" xml:space="preserve">
<style type="text/css">
	.st0{fill:#FFFFFF;}
</style>
<g>
	<path class="st0" d="M37.9,30.4v10.9c0,0,0.1,2.7-2.8,2.7C32,44,32,41.3,32,41.3s0-6.2,0-6.4S31.6,33,29.6,33
		C27,33,27,34.9,27,34.9v19.2c0,0,0,1.9-2.5,1.9c-2.5,0-2.5-2-2.5-2V40c0,0,0-2.9-3.8-2.9c-4.1,0-4,3.1-4,3.1v3.7
		c0,0-0.1,2.9-4.7,2.9s-4.6-4.5-4.6-4.5V29.9C3.2,29,0,26.7,0,26.7V56c0,0,3,9,22,9s22-8.7,22-8.7V26.7
		C41.1,29.5,37.9,30.4,37.9,30.4z"/>
	<path class="st0" d="M22,0C1.7,0,0,19.9,0,19.9v3.1C8.4,29.2,22,29,22,29s13.6,0.2,22-6.1v-3.1C44,19.9,42.3,0,22,0z M22,25
		c-11.8,0-14.3-2.4-14.3-2.4c6.3-2.9,14.3-2.8,14.3-2.8s8.1-0.1,14.3,2.8C36.3,22.6,33.8,25,22,25z M22,12.6
		c-9.6,0-17.7,2.9-17.7,2.9C8.9,2.6,22,3.1,22,3.1s13.1-0.4,17.7,12.5C39.7,15.6,31.6,12.6,22,12.6z"/>
</g>
</svg>
